src/pages/elements/images/fractions.svg

<svg xmlns="http://www.w3.org/2000/svg" xmlns:xlink="http://www.w3.org/1999/xlink" viewBox="0 0 288 288"><defs><path id="a" d="M40.463 162.749v-10.112H29.167v10.112h-2.688v-22.336h2.688v9.856h11.296v-9.856h2.688v22.336z"/><path d="M52.175 152.413c-3.2 0-4.64-2.208-4.64-6.08 0-3.904 1.44-6.112 4.64-6.112 3.2 0 4.64 2.208 4.64 6.08 0 3.904-1.44 6.112-4.64 6.112zm0-1.632c1.824 0 2.496-1.344 2.496-3.424v-2.08c0-2.08-.672-3.424-2.496-3.424-1.824 0-2.496 1.344-2.496 3.424v2.08c0 2.08.672 3.424 2.496 3.424zm16.448 1.44h-8.64v-1.6h3.488v-8.48l-3.392 1.76-.8-1.408 4.032-2.08h2.176v10.208h3.136v1.6zm11.04-1.6v1.6h-8.704v-1.824l4.16-3.36c1.248-1.024 1.984-1.984 1.984-3.136v-.192c0-1.088-.736-1.824-2.08-1.824-1.472 0-2.144.832-2.496 1.856l-1.728-.64c.512-1.504 1.792-2.88 4.352-2.88 2.624 0 4.096 1.44 4.096 3.488 0 1.856-1.248 3.136-3.04 4.512l-3.104 2.4h6.56zm4.8-5.344h1.28c1.632 0 2.4-.704 2.4-1.664v-.128c0-1.056-.8-1.664-2.08-1.664-1.248 0-2.08.544-2.656 1.44l-1.376-1.088c.736-1.056 1.984-1.952 4.096-1.952 2.4 0 4.16 1.12 4.16 3.04 0 1.536-1.152 2.432-2.496 2.72v.096c1.44.256 2.688 1.184 2.688 2.88 0 2.08-1.792 3.456-4.576 3.456-2.336 0-3.552-1.024-4.352-2.112l1.504-1.088c.608.928 1.376 1.6 2.848 1.6 1.6 0 2.464-.736 2.464-1.952v-.192c0-1.216-.864-1.76-2.464-1.76h-1.44v-1.632zm16 6.944h-1.92v-2.304h-6.048v-1.664l5.248-7.84h2.72v7.968h1.792v1.536h-1.792v2.304zm-1.92-3.84v-6.144h-.128l-4.16 6.144h4.288zm13.696-7.968v1.6h-5.728l-.352 4.256h.128c.576-.928 1.248-1.568 2.688-1.568 2.208 0 3.904 1.376 3.904 3.68 0 2.368-1.696 4.032-4.576 4.032-2.272 0-3.456-1.024-4.224-2.112l1.44-1.088c.64.928 1.344 1.6 2.816 1.6 1.6 0 2.432-.832 2.432-2.176v-.16c0-1.344-.832-2.176-2.432-2.176-1.12 0-1.696.448-2.176.928l-1.664-.224.448-6.592h7.296zm7.616 12c-2.848 0-4.512-1.76-4.512-4.608 0-3.392 2.496-6.08 4.608-7.392h2.688c-2.944 1.952-4.608 3.488-5.216 6.016l.128.032c.544-.896 1.408-1.696 3.008-1.696 2.176 0 3.808 1.408 3.808 3.648 0 2.368-1.792 4-4.512 4zm0-1.536c1.472 0 2.432-.736 2.432-2.208v-.16c0-1.472-.96-2.208-2.432-2.208s-2.432.736-2.432 2.208v.16c0 1.472.96 2.208 2.432 2.208zm11.712 1.536c-2.976 0-4.608-1.472-4.608-3.424 0-1.536 1.056-2.496 2.56-2.88v-.128c-1.28-.416-2.144-1.376-2.144-2.72 0-1.824 1.536-3.04 4.192-3.04s4.192 1.216 4.192 3.04c0 1.344-.864 2.304-2.144 2.72v.128c1.536.384 2.56 1.344 2.56 2.88 0 1.952-1.632 3.424-4.608 3.424zm0-7.04c1.472 0 2.208-.608 2.208-1.664v-.288c0-1.056-.736-1.664-2.208-1.664-1.472 0-2.208.608-2.208 1.664v.288c0 1.056.736 1.664 2.208 1.664zm0 5.504c1.6 0 2.464-.672 2.464-1.824v-.384c0-1.152-.864-1.824-2.464-1.824s-2.464.672-2.464 1.824v.384c0 1.152.864 1.824 2.464 1.824zm16.192-6.048c0 3.392-2.432 6.08-4.576 7.392h-2.688c2.912-1.952 4.576-3.488 5.184-6.016l-.128-.032c-.512.928-1.376 1.728-2.976 1.728-2.208 0-3.808-1.44-3.808-3.68 0-2.368 1.76-4 4.512-4 2.816 0 4.48 1.76 4.48 4.608zm-4.512 1.536c1.472 0 2.432-.736 2.432-2.208v-.192c0-1.472-.96-2.208-2.432-2.208s-2.432.736-2.432 2.208v.192c0 1.472.96 2.208 2.432 2.208zm1.152 16.384h-2.144l15.552-22.336h2.144l-15.552 22.336zm15.104.192c-3.2 0-4.64-2.208-4.64-6.08 0-3.904 1.44-6.112 4.64-6.112 3.2 0 4.64 2.208 4.64 6.08 0 3.904-1.44 6.112-4.64 6.112zm0-1.632c1.824 0 2.496-1.344 2.496-3.424v-2.08c0-2.08-.672-3.424-2.496-3.424-1.824 0-2.496 1.344-2.496 3.424v2.08c0 2.08.672 3.424 2.496 3.424zm16.48 1.44h-8.672v-1.6h3.488v-8.48l-3.392 1.76-.8-1.408 4.032-2.08h2.176v10.208h3.168v1.6zm11.04-1.6v1.6h-8.704v-1.824l4.16-3.36c1.248-1.024 1.984-2.048 1.984-3.136v-.192c0-1.088-.736-1.824-2.08-1.824-1.472 0-2.144.832-2.496 1.856l-1.728-.64c.512-1.504 1.792-2.88 4.352-2.88 2.624 0 4.096 1.44 4.096 3.488 0 1.856-1.248 3.136-3.04 4.512l-3.104 2.4h6.56zm4.8-5.344h1.28c1.632 0 2.4-.704 2.4-1.664v-.128c0-1.056-.8-1.664-2.08-1.664-1.248 0-2.08.544-2.656 1.44l-1.376-1.088c.736-1.056 1.984-1.952 4.096-1.952 2.4 0 4.16 1.12 4.16 3.04 0 1.536-1.152 2.432-2.496 2.72v.096c1.44.256 2.688 1.184 2.688 2.88 0 2.08-1.792 3.456-4.576 3.456-2.336 0-3.552-1.024-4.352-2.112l1.504-1.088c.608.928 1.376 1.6 2.848 1.6 1.6 0 2.464-.736 2.464-1.952v-.192c0-1.216-.864-1.76-2.464-1.76h-1.44v-1.632zm16 6.944h-1.92v-2.304h-6.048v-1.664l5.248-7.84h2.72v7.968h1.792v1.536h-1.792v2.304zm-1.92-3.84v-6.144h-.128l-4.16 6.144h4.288zm13.696-6.368h-5.728l-.352 4.256h.128c.576-.928 1.248-1.568 2.688-1.568 2.208 0 3.904 1.376 3.904 3.68 0 2.368-1.696 4.032-4.576 4.032-2.272 0-3.456-1.024-4.224-2.112l1.44-1.088c.64.928 1.344 1.6 2.816 1.6 1.6 0 2.432-.832 2.432-2.176v-.16c0-1.344-.832-2.176-2.432-2.176-1.12 0-1.696.448-2.176.928l-1.664-.224.448-6.592h7.296v1.6zm7.616 10.4c-2.848 0-4.512-1.76-4.512-4.608 0-3.392 2.496-6.08 4.608-7.392h2.688c-2.944 1.952-4.608 3.488-5.216 6.016l.128.032c.544-.896 1.408-1.696 3.008-1.696 2.176 0 3.808 1.408 3.808 3.648 0 2.368-1.792 4-4.512 4zm0-1.536c1.472 0 2.432-.736 2.432-2.208v-.16c0-1.472-.96-2.208-2.432-2.208s-2.432.736-2.432 2.208v.16c0 1.472.96 2.208 2.432 2.208zm10.304 1.344h-2.144l4.736-10.208h-4.96v2.144h-1.728v-3.744h8.704v1.664l-4.608 10.144zm11.168.192c-2.976 0-4.608-1.472-4.608-3.424 0-1.536 1.056-2.496 2.56-2.88v-.128c-1.28-.416-2.144-1.376-2.144-2.72 0-1.824 1.536-3.04 4.192-3.04s4.192 1.216 4.192 3.04c0 1.344-.864 2.304-2.144 2.72v.128c1.536.384 2.56 1.344 2.56 2.88 0 1.952-1.632 3.424-4.608 3.424zm0-1.536c1.6 0 2.464-.672 2.464-1.824v-.384c0-1.152-.864-1.824-2.464-1.824s-2.464.672-2.464 1.824v.384c0 1.152.864 1.824 2.464 1.824zm0-5.504c1.472 0 2.208-.608 2.208-1.664v-.288c0-1.056-.736-1.664-2.208-1.664-1.472 0-2.208.608-2.208 1.664v.288c0 1.056.736 1.664 2.208 1.664zm16.192-.544c0 3.392-2.432 6.08-4.576 7.392h-2.688c2.912-1.952 4.576-3.488 5.184-6.016l-.128-.032c-.512.928-1.376 1.728-2.976 1.728-2.208 0-3.808-1.44-3.808-3.68 0-2.368 1.76-4 4.512-4 2.816 0 4.48 1.76 4.48 4.608zm-4.512 1.536c1.472 0 2.432-.736 2.432-2.208v-.192c0-1.472-.96-2.208-2.432-2.208s-2.432.736-2.432 2.208v.192c0 1.472.96 2.208 2.432 2.208z" id="b"/></defs><g fill="none" fill-rule="evenodd"><path fill="#171717" fill-rule="nonzero" d="M0 0h288v288H0z"/><use fill="#000" xlink:href="#a"/><use fill="#F3F3F3" xlink:href="#a"/><use fill="#000" xlink:href="#b"/><use fill="#418CFF" xlink:href="#b"/></g></svg>

<?xml version="1.0" encoding="UTF-8"?>
<svg width="288px" height="288px" viewBox="0 0 288 288" version="1.1" xmlns="http://www.w3.org/2000/svg" xmlns:xlink="http://www.w3.org/1999/xlink">
    <!-- Generator: Sketch 50.2 (55047) - http://www.bohemiancoding.com/sketch -->
    <title>fractions</title>
    <desc>Created with Sketch.</desc>
    <defs>
        <polygon id="path-1" points="40.463 162.749 40.463 152.637 29.167 152.637 29.167 162.749 26.479 162.749 26.479 140.413 29.167 140.413 29.167 150.269 40.463 150.269 40.463 140.413 43.151 140.413 43.151 162.749"></polygon>
        <path d="M52.175,152.413 C48.975,152.413 47.535,150.205 47.535,146.333 C47.535,142.429 48.975,140.221 52.175,140.221 C55.375,140.221 56.815,142.429 56.815,146.301 C56.815,150.205 55.375,152.413 52.175,152.413 Z M52.175,150.781 C53.999,150.781 54.671,149.437 54.671,147.357 L54.671,145.277 C54.671,143.197 53.999,141.853 52.175,141.853 C50.351,141.853 49.679,143.197 49.679,145.277 L49.679,147.357 C49.679,149.437 50.351,150.781 52.175,150.781 Z M68.623,152.221 L59.983,152.221 L59.983,150.621 L63.471,150.621 L63.471,142.141 L60.079,143.901 L59.279,142.493 L63.311,140.413 L65.487,140.413 L65.487,150.621 L68.623,150.621 L68.623,152.221 Z M79.663,150.621 L79.663,152.221 L70.959,152.221 L70.959,150.397 L75.119,147.037 C76.367,146.013 77.103,145.053 77.103,143.901 L77.103,143.709 C77.103,142.621 76.367,141.885 75.023,141.885 C73.551,141.885 72.879,142.717 72.527,143.741 L70.799,143.101 C71.311,141.597 72.591,140.221 75.151,140.221 C77.775,140.221 79.247,141.661 79.247,143.709 C79.247,145.565 77.999,146.845 76.207,148.221 L73.103,150.621 L79.663,150.621 Z M84.463,145.277 L85.743,145.277 C87.375,145.277 88.143,144.573 88.143,143.613 L88.143,143.485 C88.143,142.429 87.343,141.821 86.063,141.821 C84.815,141.821 83.983,142.365 83.407,143.261 L82.031,142.173 C82.767,141.117 84.015,140.221 86.127,140.221 C88.527,140.221 90.287,141.341 90.287,143.261 C90.287,144.797 89.135,145.693 87.791,145.981 L87.791,146.077 C89.231,146.333 90.479,147.261 90.479,148.957 C90.479,151.037 88.687,152.413 85.903,152.413 C83.567,152.413 82.351,151.389 81.551,150.301 L83.055,149.213 C83.663,150.141 84.431,150.813 85.903,150.813 C87.503,150.813 88.367,150.077 88.367,148.861 L88.367,148.669 C88.367,147.453 87.503,146.909 85.903,146.909 L84.463,146.909 L84.463,145.277 Z M100.463,152.221 L98.543,152.221 L98.543,149.917 L92.495,149.917 L92.495,148.253 L97.743,140.413 L100.463,140.413 L100.463,148.381 L102.255,148.381 L102.255,149.917 L100.463,149.917 L100.463,152.221 Z M98.543,148.381 L98.543,142.237 L98.415,142.237 L94.255,148.381 L98.543,148.381 Z M112.239,140.413 L112.239,142.013 L106.511,142.013 L106.159,146.269 L106.287,146.269 C106.863,145.341 107.535,144.701 108.975,144.701 C111.183,144.701 112.879,146.077 112.879,148.381 C112.879,150.749 111.183,152.413 108.303,152.413 C106.031,152.413 104.847,151.389 104.079,150.301 L105.519,149.213 C106.159,150.141 106.863,150.813 108.335,150.813 C109.935,150.813 110.767,149.981 110.767,148.637 L110.767,148.477 C110.767,147.133 109.935,146.301 108.335,146.301 C107.215,146.301 106.639,146.749 106.159,147.229 L104.495,147.005 L104.943,140.413 L112.239,140.413 Z M119.855,152.413 C117.007,152.413 115.343,150.653 115.343,147.805 C115.343,144.413 117.839,141.725 119.951,140.413 L122.639,140.413 C119.695,142.365 118.031,143.901 117.423,146.429 L117.551,146.461 C118.095,145.565 118.959,144.765 120.559,144.765 C122.735,144.765 124.367,146.173 124.367,148.413 C124.367,150.781 122.575,152.413 119.855,152.413 Z M119.855,150.877 C121.327,150.877 122.287,150.141 122.287,148.669 L122.287,148.509 C122.287,147.037 121.327,146.301 119.855,146.301 C118.383,146.301 117.423,147.037 117.423,148.509 L117.423,148.669 C117.423,150.141 118.383,150.877 119.855,150.877 Z M131.567,152.413 C128.591,152.413 126.959,150.941 126.959,148.989 C126.959,147.453 128.015,146.493 129.519,146.109 L129.519,145.981 C128.239,145.565 127.375,144.605 127.375,143.261 C127.375,141.437 128.911,140.221 131.567,140.221 C134.223,140.221 135.759,141.437 135.759,143.261 C135.759,144.605 134.895,145.565 133.615,145.981 L133.615,146.109 C135.151,146.493 136.175,147.453 136.175,148.989 C136.175,150.941 134.543,152.413 131.567,152.413 Z M131.567,145.373 C133.039,145.373 133.775,144.765 133.775,143.709 L133.775,143.421 C133.775,142.365 133.039,141.757 131.567,141.757 C130.095,141.757 129.359,142.365 129.359,143.421 L129.359,143.709 C129.359,144.765 130.095,145.373 131.567,145.373 Z M131.567,150.877 C133.167,150.877 134.031,150.205 134.031,149.053 L134.031,148.669 C134.031,147.517 133.167,146.845 131.567,146.845 C129.967,146.845 129.103,147.517 129.103,148.669 L129.103,149.053 C129.103,150.205 129.967,150.877 131.567,150.877 Z M147.759,144.829 C147.759,148.221 145.327,150.909 143.183,152.221 L140.495,152.221 C143.407,150.269 145.071,148.733 145.679,146.205 L145.551,146.173 C145.039,147.101 144.175,147.901 142.575,147.901 C140.367,147.901 138.767,146.461 138.767,144.221 C138.767,141.853 140.527,140.221 143.279,140.221 C146.095,140.221 147.759,141.981 147.759,144.829 Z M143.247,146.365 C144.719,146.365 145.679,145.629 145.679,144.157 L145.679,143.965 C145.679,142.493 144.719,141.757 143.247,141.757 C141.775,141.757 140.815,142.493 140.815,143.965 L140.815,144.157 C140.815,145.629 141.775,146.365 143.247,146.365 Z M144.399,162.749 L142.255,162.749 L157.807,140.413 L159.951,140.413 L144.399,162.749 Z M159.503,162.941 C156.303,162.941 154.863,160.733 154.863,156.861 C154.863,152.957 156.303,150.749 159.503,150.749 C162.703,150.749 164.143,152.957 164.143,156.829 C164.143,160.733 162.703,162.941 159.503,162.941 Z M159.503,161.309 C161.327,161.309 161.999,159.965 161.999,157.885 L161.999,155.805 C161.999,153.725 161.327,152.381 159.503,152.381 C157.679,152.381 157.007,153.725 157.007,155.805 L157.007,157.885 C157.007,159.965 157.679,161.309 159.503,161.309 Z M175.983,162.749 L167.311,162.749 L167.311,161.149 L170.799,161.149 L170.799,152.669 L167.407,154.429 L166.607,153.021 L170.639,150.941 L172.815,150.941 L172.815,161.149 L175.983,161.149 L175.983,162.749 Z M187.023,161.149 L187.023,162.749 L178.319,162.749 L178.319,160.925 L182.479,157.565 C183.727,156.541 184.463,155.517 184.463,154.429 L184.463,154.237 C184.463,153.149 183.727,152.413 182.383,152.413 C180.911,152.413 180.239,153.245 179.887,154.269 L178.159,153.629 C178.671,152.125 179.951,150.749 182.511,150.749 C185.135,150.749 186.607,152.189 186.607,154.237 C186.607,156.093 185.359,157.373 183.567,158.749 L180.463,161.149 L187.023,161.149 Z M191.823,155.805 L193.103,155.805 C194.735,155.805 195.503,155.101 195.503,154.141 L195.503,154.013 C195.503,152.957 194.703,152.349 193.423,152.349 C192.175,152.349 191.343,152.893 190.767,153.789 L189.391,152.701 C190.127,151.645 191.375,150.749 193.487,150.749 C195.887,150.749 197.647,151.869 197.647,153.789 C197.647,155.325 196.495,156.221 195.151,156.509 L195.151,156.605 C196.591,156.861 197.839,157.789 197.839,159.485 C197.839,161.565 196.047,162.941 193.263,162.941 C190.927,162.941 189.711,161.917 188.911,160.829 L190.415,159.741 C191.023,160.669 191.791,161.341 193.263,161.341 C194.863,161.341 195.727,160.605 195.727,159.389 L195.727,159.197 C195.727,157.981 194.863,157.437 193.263,157.437 L191.823,157.437 L191.823,155.805 Z M207.823,162.749 L205.903,162.749 L205.903,160.445 L199.855,160.445 L199.855,158.781 L205.103,150.941 L207.823,150.941 L207.823,158.909 L209.615,158.909 L209.615,160.445 L207.823,160.445 L207.823,162.749 Z M205.903,158.909 L205.903,152.765 L205.775,152.765 L201.615,158.909 L205.903,158.909 Z M219.599,152.541 L213.871,152.541 L213.519,156.797 L213.647,156.797 C214.223,155.869 214.895,155.229 216.335,155.229 C218.543,155.229 220.239,156.605 220.239,158.909 C220.239,161.277 218.543,162.941 215.663,162.941 C213.391,162.941 212.207,161.917 211.439,160.829 L212.879,159.741 C213.519,160.669 214.223,161.341 215.695,161.341 C217.295,161.341 218.127,160.509 218.127,159.165 L218.127,159.005 C218.127,157.661 217.295,156.829 215.695,156.829 C214.575,156.829 213.999,157.277 213.519,157.757 L211.855,157.533 L212.303,150.941 L219.599,150.941 L219.599,152.541 Z M227.215,162.941 C224.367,162.941 222.703,161.181 222.703,158.333 C222.703,154.941 225.199,152.253 227.311,150.941 L229.999,150.941 C227.055,152.893 225.391,154.429 224.783,156.957 L224.911,156.989 C225.455,156.093 226.319,155.293 227.919,155.293 C230.095,155.293 231.727,156.701 231.727,158.941 C231.727,161.309 229.935,162.941 227.215,162.941 Z M227.215,161.405 C228.687,161.405 229.647,160.669 229.647,159.197 L229.647,159.037 C229.647,157.565 228.687,156.829 227.215,156.829 C225.743,156.829 224.783,157.565 224.783,159.037 L224.783,159.197 C224.783,160.669 225.743,161.405 227.215,161.405 Z M237.519,162.749 L235.375,162.749 L240.111,152.541 L235.151,152.541 L235.151,154.685 L233.423,154.685 L233.423,150.941 L242.127,150.941 L242.127,152.605 L237.519,162.749 Z M248.687,162.941 C245.711,162.941 244.079,161.469 244.079,159.517 C244.079,157.981 245.135,157.021 246.639,156.637 L246.639,156.509 C245.359,156.093 244.495,155.133 244.495,153.789 C244.495,151.965 246.031,150.749 248.687,150.749 C251.343,150.749 252.879,151.965 252.879,153.789 C252.879,155.133 252.015,156.093 250.735,156.509 L250.735,156.637 C252.271,157.021 253.295,157.981 253.295,159.517 C253.295,161.469 251.663,162.941 248.687,162.941 Z M248.687,161.405 C250.287,161.405 251.151,160.733 251.151,159.581 L251.151,159.197 C251.151,158.045 250.287,157.373 248.687,157.373 C247.087,157.373 246.223,158.045 246.223,159.197 L246.223,159.581 C246.223,160.733 247.087,161.405 248.687,161.405 Z M248.687,155.901 C250.159,155.901 250.895,155.293 250.895,154.237 L250.895,153.949 C250.895,152.893 250.159,152.285 248.687,152.285 C247.215,152.285 246.479,152.893 246.479,153.949 L246.479,154.237 C246.479,155.293 247.215,155.901 248.687,155.901 Z M264.879,155.357 C264.879,158.749 262.447,161.437 260.303,162.749 L257.615,162.749 C260.527,160.797 262.191,159.261 262.799,156.733 L262.671,156.701 C262.159,157.629 261.295,158.429 259.695,158.429 C257.487,158.429 255.887,156.989 255.887,154.749 C255.887,152.381 257.647,150.749 260.399,150.749 C263.215,150.749 264.879,152.509 264.879,155.357 Z M260.367,156.893 C261.839,156.893 262.799,156.157 262.799,154.685 L262.799,154.493 C262.799,153.021 261.839,152.285 260.367,152.285 C258.895,152.285 257.935,153.021 257.935,154.493 L257.935,154.685 C257.935,156.157 258.895,156.893 260.367,156.893 Z" id="path-2"></path>
    </defs>
    <g id="Page-1" stroke="none" stroke-width="1" fill="none" fill-rule="evenodd">
        <g id="fractions">
            <polygon id="Shape" fill="#171717" fill-rule="nonzero" points="0 0 288 0 288 288 0 288"></polygon>
            <g id="H">
                <use fill="#000000" xlink:href="#path-1"></use>
                <use fill="#F3F3F3" xlink:href="#path-1"></use>
            </g>
            <g id="⁰¹²³⁴⁵⁶⁸⁹⁄₀₁₂₃₄₅₆₇₈₉">
                <use fill="#000000" xlink:href="#path-2"></use>
                <use fill="#418CFF" xlink:href="#path-2"></use>
            </g>
        </g>
    </g>
</svg>
